map/src/assets/menu/ic_action_plan_route.svg

<svg width="24" height="24" viewBox="0 0 24 24" xmlns="http://www.w3.org/2000/svg">
<path fill-rule="evenodd" clip-rule="evenodd" d="M13 15.5C13 17.9853 10.9853 20 8.5 20C6.01472 20 4 17.9853 4 15.5L4 14C4 13.4477 4.44772 13 5 13C5.55228 13 6 13.4477 6 14V15.5C6 16.8807 7.11929 18 8.5 18C9.88071 18 11 16.8807 11 15.5L11 13C11 12.4477 11.4477 12 12 12C12.5523 12 13 12.4477 13 13L13 15.5Z"/>
<g opacity="0.5">
<path d="M14 5C14 4.44772 14.4477 4 15 4H16C16.5523 4 17 4.44772 17 5C17 5.55228 16.5523 6 16 6H15C14.4477 6 14 5.55228 14 5Z" />
<path d="M12 7C12.5523 7 13 7.44771 13 8V9C13 9.55228 12.5523 10 12 10C11.4477 10 11 9.55228 11 9V8C11 7.44771 11.4477 7 12 7Z" />
<path d="M20 8C20 7.44771 19.5523 7 19 7C18.4477 7 18 7.44771 18 8V9C18 9.55228 18.4477 10 19 10C19.5523 10 20 9.55228 20 9V8Z" />
<path fill-rule="evenodd" clip-rule="evenodd" d="M19 12C19.5523 12 20 12.4477 20 13V14.1707C21.1652 14.5825 22 15.6938 22 17C22 18.6569 20.6569 20 19 20C17.3431 20 16 18.6569 16 17C16 15.6938 16.8348 14.5825 18 14.1707V13C18 12.4477 18.4477 12 19 12ZM19 18C19.5523 18 20 17.5523 20 17C20 16.4477 19.5523 16 19 16C18.4477 16 18 16.4477 18 17C18 17.5523 18.4477 18 19 18Z" />
</g>
<path d="M4.5 10.5V7.5H5.5V10.5H4.5Z" />
<path d="M4.5 7.5V4.5H8.5V6V7.5H4.5Z" />
</svg>

<svg xmlns="http://www.w3.org/2000/svg" width="24" height="24" viewBox="0 0 24 24">
<g opacity=".5">
    <path d="M14 5a1 1 0 0 1 1-1h1a1 1 0 1 1 0 2h-1a1 1 0 0 1-1-1Z"/>
    <path d="M12 7a1 1 0 0 1 1 1v1a1 1 0 1 1-2 0V8a1 1 0 0 1 1-1Z"/>
    <path d="M20 8a1 1 0 1 0-2 0v1a1 1 0 1 0 2 0V8Z"/>
    <path fill-rule="evenodd" d="M19 12a1 1 0 0 1 1 1v1.17a3.001 3.001 0 1 1-2 0V13a1 1 0 0 1 1-1Zm0 6a1 1 0 1 0 0-2 1 1 0 0 0 0 2Z" clip-rule="evenodd"/></g><path d="M4 4h5v4H6v3H4V4Z"/>
<path d="M13 15.5a4.5 4.5 0 1 1-9 0V14a1 1 0 1 1 2 0v1.5a2.5 2.5 0 0 0 5 0V13a1 1 0 1 1 2 0v2.5Z"/>
</svg>
